svgs/sharp-light/ruler-combined.svg

<svg xmlns="http://www.w3.org/2000/svg" viewBox="0 0 512 512"><!--! Font Awesome Pro 6.6.0 by @fontawesome - https://fontawesome.com License - https://fontawesome.com/license (Commercial License) Copyright 2024 Fonticons, Inc. --><path d="M256 288l-32 0 0-32 0-224 0-32L192 0 32 0 0 0 0 32 0 288 0 480l0 32 32 0 192 0 256 0 32 0 0-32 0-160 0-32-32 0-224 0zm128 32l0 64 0 16 32 0 0-16 0-64 64 0 0 160-256 0L32 480l0-192L32 32l160 0 0 64-64 0-16 0 0 32 16 0 64 0 0 64-64 0-16 0 0 32 16 0 64 0 0 64-64 0-16 0 0 32 16 0 64 0 0 64 0 16 32 0 0-16 0-64 64 0 0 64 0 16 32 0 0-16 0-64 64 0z"/></svg>

<svg xmlns="http://www.w3.org/2000/svg" viewBox="0 0 512 512"><!--! Font Awesome Pro 6.4.0 by @fontawesome - https://fontawesome.com License - https://fontawesome.com/license (Commercial License) Copyright 2023 Fonticons, Inc. --><path d="M256 288H224V256l0-224V0H192 32 0V32 288 480v32H32 224l256 0h32V480 320 288H480 256zm128 32v64 16h32V384 320h64l0 160-256 0H32l0-192L32 32l160 0 0 64-64 0H112v32h16l64 0v64H128l-16 0v32h16l64 0v64H128 112v32h16 64v64 16h32V384 320h64v64 16h32V384 320h64z"/></svg>
